;FLAVOR:Marlin
;TIME:9299
;Filament used: 9.95022m
;Layer height: 0.3
;MINX:100.696
;MINY:80.205
;MINZ:0.2
;MAXX:149.304
;MAXY:129.795
;MAXZ:51.2
;Generated with Cura_SteamEngine 4.4.1
M82 ;absolute extrusion mode
G21 ; set units to millimeters
G90 ; use absolute positioning
M82 ; absolute extrusion mode
M104 S200 ; set extruder temp
M140 S60 ; set bed temp
M190 S60 ; wait for bed temp
M109 S200 ; wait for extruder temp
G28 W ; home all without mesh bed level
G80 ; mesh bed leveling
G92 E0.0 ; reset extruder distance position
G1 Y-3.0 F1000.0 ; go outside print area
G1 X60.0 E9.0 F1000.0 ; intro line
G1 X100.0 E21.5 F1000.0 ; intro line
G92 E0.0 ; reset extruder distance position
G92 E0
G92 E0
G1 F2100 E-0.8
;LAYER_COUNT:171
;LAYER:0
M107
G0 F3600 X107.851 Y89.003 Z0.2
;TYPE:SKIRT
G1 F2100 E0
G1 F1800 X108.376 Y88.413 E0.02627
G1 X108.958 Y87.88 E0.05252
G1 X109.352 Y87.574 E0.06911
G1 X110.512 Y86.732 E0.11678
G1 X111.174 Y86.301 E0.14306
G1 X111.337 Y86.217 E0.14916
G1 X112.109 Y85.572 E0.18261
G1 X113.263 Y84.732 E0.23009
G1 X113.924 Y84.3 E0.25635
G1 X114.625 Y83.937 E0.28261
G1 X115.36 Y83.647 E0.30889
G1 X116.12 Y83.433 E0.33515
G1 X116.898 Y83.297 E0.36142
G1 X117.685 Y83.24 E0.38766
G1 X117.935 Y83.247 E0.39598
G1 X118.284 Y82.991 E0.41038
G1 X118.964 Y82.59 E0.43663
G1 X119.682 Y82.26 E0.46291
G1 X120.429 Y82.005 E0.48917
G1 X121.198 Y81.826 E0.51543
G1 X121.982 Y81.726 E0.54172
G1 X122.571 Y81.703 E0.56132
G1 X123.988 Y81.702 E0.60845
G1 X124.777 Y81.741 E0.63473
G1 X125 Y81.775 E0.64223
G1 X125.381 Y81.726 E0.655
G1 X125.976 Y81.703 E0.67481
G1 X127.399 Y81.702 E0.72214
G1 X128.187 Y81.741 E0.74838
G1 X128.968 Y81.86 E0.77466
G1 X129.733 Y82.058 E0.80094
G1 X130.473 Y82.331 E0.82717
G1 X131.183 Y82.678 E0.85346
G1 X131.853 Y83.095 E0.8797
G1 X132.047 Y83.245 E0.88786
G1 X132.672 Y83.256 E0.90865
G1 X133.456 Y83.349 E0.93491
G1 X134.227 Y83.521 E0.96118
G1 X134.976 Y83.77 E0.98744
G1 X135.696 Y84.093 E1.01368
G1 X136.38 Y84.488 E1.03995
G1 X136.714 Y84.716 E1.0534
G1 X137.868 Y85.55 E1.10076
G1 X138.484 Y86.045 E1.12704
G1 X138.65 Y86.208 E1.13478
G1 X138.991 Y86.395 E1.14772
G1 X139.493 Y86.732 E1.16783
G1 X140.655 Y87.577 E1.21561
G1 X141.27 Y88.073 E1.24189
G1 X141.831 Y88.629 E1.26816
G1 X142.333 Y89.238 E1.29441
G1 X142.77 Y89.895 E1.32066
G1 X143.14 Y90.594 E1.34696
G1 X143.436 Y91.325 E1.37319
G1 X143.504 Y91.56 E1.38133
G1 X143.795 Y91.764 E1.39315
G1 X144.392 Y92.281 E1.41942
G1 X144.933 Y92.856 E1.44567
G1 X145.414 Y93.483 E1.47196
G1 X145.828 Y94.155 E1.49821
G1 X146.173 Y94.866 E1.5245
G1 X146.409 Y95.498 E1.54693
G1 X146.852 Y96.861 E1.5946
G1 X147.058 Y97.623 E1.62086
G1 X147.092 Y97.834 E1.62796
G1 X147.263 Y98.197 E1.64131
G1 X147.458 Y98.729 E1.66016
G1 X147.903 Y100.091 E1.70781
G1 X148.11 Y100.853 E1.73408
G1 X148.239 Y101.632 E1.76034
G1 X148.288 Y102.42 E1.7866
G1 X148.258 Y103.209 E1.81286
G1 X148.148 Y103.991 E1.83912
G1 X147.959 Y104.758 E1.8654
G1 X147.872 Y105.003 E1.87404
G1 X148.003 Y105.396 E1.88782
G1 X148.176 Y106.166 E1.91407
G1 X148.27 Y106.95 E1.94033
G1 X148.285 Y107.74 E1.96661
G1 X148.22 Y108.527 E1.99288
G1 X148.075 Y109.303 E2.01914
G1 X147.908 Y109.896 E2.03963
G1 X147.471 Y111.243 E2.08673
G1 X147.19 Y111.981 E2.11299
G1 X147.083 Y112.194 E2.12092
G1 X147.028 Y112.498 E2.1312
G1 X146.854 Y113.127 E2.1529
G1 X146.41 Y114.5 E2.2009
G1 X146.129 Y115.238 E2.22716
G1 X145.775 Y115.944 E2.25343
G1 X145.352 Y116.611 E2.2797
G1 X144.863 Y117.231 E2.30596
G1 X144.314 Y117.799 E2.33224
G1 X143.71 Y118.308 E2.35851
G1 X143.501 Y118.451 E2.36693
G1 X143.387 Y118.816 E2.37965
G1 X143.076 Y119.542 E2.40592
G1 X142.693 Y120.233 E2.43219
G1 X142.243 Y120.881 E2.45843
G1 X141.729 Y121.481 E2.48471
G1 X141.157 Y122.026 E2.51099
G1 X140.654 Y122.424 E2.53232
G1 X139.496 Y123.265 E2.57992
G1 X138.834 Y123.696 E2.6062
G1 X138.655 Y123.788 E2.61289
G1 X137.9 Y124.423 E2.6457
G1 X136.747 Y125.264 E2.69317
G1 X136.086 Y125.696 E2.71943
G1 X135.385 Y126.06 E2.74571
G1 X134.65 Y126.35 E2.77199
G1 X133.891 Y126.565 E2.79822
G1 X133.113 Y126.702 E2.8245
G1 X132.325 Y126.76 E2.85078
G1 X132.065 Y126.753 E2.85943
G1 X131.716 Y127.009 E2.87382
G1 X131.036 Y127.41 E2.90008
G1 X130.318 Y127.74 E2.92636
G1 X129.571 Y127.995 E2.95262
G1 X128.802 Y128.174 E2.97888
G1 X128.018 Y128.274 E3.00516
G1 X127.429 Y128.297 E3.02477
G1 X126.012 Y128.298 E3.0719
G1 X125.223 Y128.259 E3.09817
G1 X125 Y128.225 E3.10568
G1 X124.619 Y128.274 E3.11845
G1 X124.024 Y128.297 E3.13826
G1 X122.601 Y128.298 E3.18559
G1 X121.813 Y128.259 E3.21183
G1 X121.032 Y128.14 E3.2381
G1 X120.267 Y127.942 E3.26439
G1 X119.527 Y127.669 E3.29062
G1 X118.817 Y127.322 E3.3169
G1 X118.147 Y126.905 E3.34315
G1 X117.949 Y126.752 E3.35147
G1 X117.442 Y126.751 E3.36834
G1 X116.657 Y126.67 E3.39458
G1 X115.883 Y126.51 E3.42087
G1 X115.13 Y126.273 E3.44713
G1 X114.405 Y125.96 E3.47339
G1 X113.715 Y125.576 E3.49966
G1 X113.283 Y125.286 E3.51696
G1 X112.125 Y124.45 E3.56447
G1 X111.509 Y123.956 E3.59073
G1 X111.321 Y123.771 E3.5995
G1 X111.053 Y123.627 E3.60962
G1 X110.503 Y123.262 E3.63158
G1 X109.349 Y122.423 E3.67903
G1 X108.735 Y121.927 E3.70528
G1 X108.174 Y121.371 E3.73155
G1 X107.672 Y120.761 E3.75783
G1 X107.234 Y120.104 E3.78409
G1 X106.865 Y119.406 E3.81035
G1 X106.568 Y118.674 E3.83663
G1 X106.51 Y118.455 E3.84416
G1 X106.104 Y118.16 E3.86085
G1 X105.516 Y117.632 E3.88714
G1 X104.984 Y117.049 E3.91339
G1 X104.514 Y116.414 E3.93966
G1 X104.111 Y115.735 E3.96592
G1 X103.778 Y115.019 E3.99219
G1 X103.587 Y114.495 E4.01074
G1 X103.143 Y113.122 E4.05873
G1 X102.939 Y112.359 E4.085
G1 X102.91 Y112.183 E4.09093
G1 X102.713 Y111.754 E4.10664
G1 X102.539 Y111.276 E4.12355
G1 X102.095 Y109.918 E4.17108
G1 X101.888 Y109.156 E4.19734
G1 X101.759 Y108.377 E4.2236
G1 X101.71 Y107.589 E4.24986
G1 X101.74 Y106.8 E4.27612
G1 X101.85 Y106.018 E4.30239
G1 X102.039 Y105.251 E4.32866
G1 X102.127 Y105.003 E4.33741
G1 X102.01 Y104.658 E4.34953
G1 X101.833 Y103.888 E4.37581
G1 X101.734 Y103.105 E4.40206
G1 X101.715 Y102.316 E4.42831
G1 X101.776 Y101.528 E4.45459
G1 X101.916 Y100.751 E4.48085
G1 X102.093 Y100.114 E4.50284
G1 X102.538 Y98.743 E4.55078
G1 X102.82 Y98.005 E4.57706
G1 X102.914 Y97.818 E4.58402
G1 X102.976 Y97.479 E4.59549
G1 X103.147 Y96.866 E4.61665
G1 X103.586 Y95.508 E4.66412
G1 X103.867 Y94.77 E4.69039
G1 X104.221 Y94.064 E4.71665
G1 X104.644 Y93.397 E4.74292
G1 X105.133 Y92.777 E4.76919
G1 X105.681 Y92.209 E4.79544
G1 X106.285 Y91.7 E4.82171
G1 X106.5 Y91.553 E4.83037
G1 X106.669 Y91.047 E4.84812
G1 X106.993 Y90.327 E4.87438
G1 X107.389 Y89.644 E4.90063
G1 X107.851 Y89.003 E4.92691
G0 F3600 X108.226 Y89.176
G1 F1800 X108.746 Y88.609 E4.9525
G1 X109.587 Y87.897 E4.98915
G1 X110.747 Y87.055 E5.03683
G1 X111.392 Y86.636 E5.06241
G1 X111.583 Y86.539 E5.06953
G1 X111.664 Y86.455 E5.07342
G1 X112.344 Y85.895 E5.10271
G1 X113.498 Y85.055 E5.15019
G1 X114.143 Y84.635 E5.17579
G1 X114.827 Y84.285 E5.20134
G1 X115.545 Y84.007 E5.22695
G1 X116.287 Y83.806 E5.25252
G1 X117.046 Y83.682 E5.2781
G1 X117.814 Y83.638 E5.30369
G1 X118.054 Y83.655 E5.31169
G1 X118.538 Y83.303 E5.33159
G1 X119.203 Y82.917 E5.35717
G1 X119.905 Y82.602 E5.38276
G1 X120.636 Y82.362 E5.40835
G1 X121.387 Y82.199 E5.43391
G1 X122.152 Y82.115 E5.4595
G1 X122.572 Y82.103 E5.47348
G1 X123.989 Y82.102 E5.52061
G1 X124.757 Y82.141 E5.54619
G1 X124.99 Y82.177 E5.55403
G1 X125.551 Y82.115 E5.5728
G1 X125.976 Y82.103 E5.58694
G1 X127.399 Y82.102 E5.63427
G1 X128.167 Y82.141 E5.65985
G1 X128.927 Y82.26 E5.68543
G1 X129.67 Y82.458 E5.71101
G1 X130.389 Y82.731 E5.73659
G1 X131.076 Y83.077 E5.76217
G1 X131.723 Y83.493 E5.78776
G1 X131.91 Y83.643 E5.79573
G1 X131.916 Y83.642 E5.79593
G1 X132.685 Y83.658 E5.82151
G1 X133.448 Y83.754 E5.84709
G1 X134.197 Y83.928 E5.87267
G1 X134.924 Y84.18 E5.89826
G1 X135.621 Y84.505 E5.92384
G1 X136.48 Y85.04 E5.9575
G1 X137.634 Y85.874 E6.00485
G1 X138.233 Y86.357 E6.03044
G1 X138.406 Y86.529 E6.03856
G1 X138.9 Y86.81 E6.05746
G1 X139.258 Y87.055 E6.07189
G1 X140.42 Y87.9 E6.11968
G1 X141.018 Y88.384 E6.14526
G1 X141.562 Y88.928 E6.17085
G1 X142.047 Y89.525 E6.19644
G1 X142.467 Y90.169 E6.22201
G1 X142.818 Y90.853 E6.24758
G1 X143.097 Y91.57 E6.27317
G1 X143.155 Y91.802 E6.28112
G1 X143.58 Y92.104 E6.29846
G1 X144.158 Y92.612 E6.32406
G1 X144.68 Y93.177 E6.34964
G1 X145.141 Y93.793 E6.37523
G1 X145.535 Y94.453 E6.4008
G1 X145.858 Y95.151 E6.42638
G1 X146.029 Y95.622 E6.44304
G1 X146.472 Y96.985 E6.49071
G1 X146.671 Y97.728 E6.51629
G1 X146.706 Y97.945 E6.52361
G1 X146.944 Y98.478 E6.54302
G1 X147.078 Y98.853 E6.55626
G1 X147.523 Y100.215 E6.60392
G1 X147.724 Y100.957 E6.62949
G1 X147.846 Y101.717 E6.65509
G1 X147.889 Y102.485 E6.68068
G1 X147.852 Y103.253 E6.70625
G1 X147.735 Y104.013 E6.73182
G1 X147.54 Y104.757 E6.75741
G1 X147.449 Y104.999 E6.766
G1 X147.628 Y105.542 E6.78502
G1 X147.792 Y106.293 E6.81059
G1 X147.876 Y107.058 E6.83618
G1 X147.881 Y107.827 E6.86176
G1 X147.806 Y108.592 E6.88733
G1 X147.652 Y109.346 E6.91292
G1 X147.528 Y109.773 E6.92771
G1 X147.091 Y111.12 E6.97481
G1 X146.816 Y111.838 E7.00039
G1 X146.7 Y112.066 E7.00889
G1 X146.606 Y112.543 E7.02506
G1 X146.473 Y113.004 E7.04102
G1 X146.029 Y114.377 E7.08902
G1 X145.755 Y115.095 E7.11458
G1 X145.407 Y115.782 E7.14019
G1 X144.99 Y116.428 E7.16577
G1 X144.509 Y117.028 E7.19134
G1 X143.967 Y117.574 E7.21693
G1 X143.372 Y118.061 E7.2425
G1 X143.161 Y118.2 E7.25091
G1 X142.998 Y118.715 E7.26887
G1 X142.69 Y119.42 E7.29446
G1 X142.311 Y120.089 E7.32004
G1 X141.865 Y120.715 E7.3456
G1 X141.356 Y121.292 E7.37119
G1 X140.79 Y121.813 E7.39678
G1 X140.418 Y122.101 E7.41243
G1 X139.26 Y122.942 E7.46003
G1 X138.615 Y123.361 E7.48561
G1 X138.42 Y123.46 E7.49288
G1 X138.351 Y123.532 E7.4962
G1 X137.664 Y124.1 E7.52585
G1 X136.511 Y124.941 E7.57331
G1 X135.867 Y125.361 E7.59889
G1 X135.182 Y125.712 E7.62449
G1 X134.465 Y125.99 E7.65006
G1 X133.723 Y126.193 E7.67565
G1 X132.964 Y126.317 E7.70123
G1 X132.196 Y126.362 E7.72682
G1 X131.938 Y126.35 E7.73541
G1 X131.462 Y126.697 E7.755
G1 X130.797 Y127.083 E7.78057
G1 X130.095 Y127.398 E7.80616
G1 X129.364 Y127.638 E7.83175
G1 X128.613 Y127.801 E7.85731
G1 X127.848 Y127.885 E7.88291
G1 X127.428 Y127.897 E7.89689
G1 X126.011 Y127.898 E7.94402
G1 X125.243 Y127.859 E7.96959
G1 X125.01 Y127.823 E7.97743
G1 X124.449 Y127.885 E7.99621
G1 X124.024 Y127.897 E8.01035
G1 X122.601 Y127.898 E8.05768
G1 X121.833 Y127.859 E8.08325
G1 X121.073 Y127.74 E8.10884
G1 X120.33 Y127.542 E8.13441
G1 X119.611 Y127.269 E8.15999
G1 X118.924 Y126.923 E8.18558
G1 X118.277 Y126.507 E8.21116
G1 X118.085 Y126.353 E8.21935
G1 X117.423 Y126.35 E8.24137
G1 X116.658 Y126.266 E8.26696
G1 X115.907 Y126.103 E8.29252
G1 X115.176 Y125.862 E8.31812
G1 X114.474 Y125.548 E8.3437
G1 X113.518 Y124.962 E8.381
G1 X112.36 Y124.126 E8.4285
G1 X111.76 Y123.644 E8.4541
G1 X111.561 Y123.446 E8.46343
G1 X111.141 Y123.211 E8.47944
G1 X110.738 Y122.938 E8.49563
G1 X109.584 Y122.099 E8.54309
G1 X108.987 Y121.615 E8.56865
G1 X108.442 Y121.072 E8.59424
G1 X107.957 Y120.475 E8.61982
G1 X107.537 Y119.831 E8.64539
G1 X107.186 Y119.146 E8.67099
G1 X106.908 Y118.429 E8.69657
G1 X106.852 Y118.211 E8.70405
G1 X106.324 Y117.823 E8.72585
G1 X105.755 Y117.306 E8.75142
G1 X105.242 Y116.733 E8.777
G1 X104.792 Y116.109 E8.80259
G1 X104.409 Y115.442 E8.82817
G1 X104.097 Y114.739 E8.85375
G1 X103.968 Y114.372 E8.86669
G1 X103.524 Y112.999 E8.91468
G1 X103.326 Y112.256 E8.94026
G1 X103.296 Y112.063 E8.94675
G1 X102.919 Y111.152 E8.97954
G1 X102.475 Y109.794 E9.02707
G1 X102.275 Y109.051 E9.05266
G1 X102.152 Y108.292 E9.07823
G1 X102.109 Y107.524 E9.10381
G1 X102.146 Y106.756 E9.12939
G1 X102.262 Y105.995 E9.15499
G1 X102.457 Y105.251 E9.18057
G1 X102.55 Y105.004 E9.18935
G1 X102.384 Y104.51 E9.20668
G1 X102.216 Y103.759 E9.23228
G1 X102.127 Y102.995 E9.25786
G1 X102.118 Y102.226 E9.28344
G1 X102.189 Y101.46 E9.30903
G1 X102.338 Y100.706 E9.33459
G1 X102.473 Y100.237 E9.35082
G1 X102.918 Y98.866 E9.39876
G1 X103.194 Y98.148 E9.42435
G1 X103.297 Y97.945 E9.43192
G1 X103.399 Y97.435 E9.44922
G1 X103.528 Y96.989 E9.46466
G1 X103.967 Y95.631 E9.51213
G1 X104.241 Y94.912 E9.53772
G1 X104.588 Y94.226 E9.56329
G1 X105.005 Y93.58 E9.58886
G1 X105.487 Y92.98 E9.61446
G1 X106.028 Y92.433 E9.64005
G1 X106.623 Y91.946 E9.66562
G1 X106.837 Y91.806 E9.67413
G1 X107.056 Y91.156 E9.69694
G1 X107.377 Y90.456 E9.72256
G1 X107.768 Y89.794 E9.74813
G1 X108.226 Y89.176 E9.77371
G0 F3600 X108.601 Y89.352
G1 F1800 X109.115 Y88.809 E9.79858
G1 X109.822 Y88.221 E9.82917
G1 X110.982 Y87.379 E9.87684
G1 X111.61 Y86.973 E9.90171
G1 X111.83 Y86.862 E9.90991
G1 X112.027 Y86.665 E9.91917
G1 X112.579 Y86.219 E9.94278
G1 X113.733 Y85.379 E9.99025
G1 X114.361 Y84.971 E10.01516
G1 X115.028 Y84.633 E10.04003
G1 X115.728 Y84.368 E10.06492
G1 X116.452 Y84.18 E10.0898
G1 X117.192 Y84.069 E10.11469
G1 X117.939 Y84.039 E10.13956
G1 X118.178 Y84.058 E10.14753
G1 X118.184 Y84.053 E10.14779
G1 X118.79 Y83.616 E10.17264
G1 X119.44 Y83.245 E10.19753
G1 X120.126 Y82.946 E10.22242
G1 X120.84 Y82.722 E10.24731
G1 X121.573 Y82.575 E10.27218
G1 X122.572 Y82.503 E10.30549
G1 X123.989 Y82.502 E10.35262
G1 X124.736 Y82.541 E10.3775
G1 X124.964 Y82.578 E10.38518
G1 X124.973 Y82.576 E10.38549
G1 X125.976 Y82.503 E10.41894
G1 X127.399 Y82.502 E10.46627
G1 X128.146 Y82.541 E10.49114
G1 X128.885 Y82.66 E10.51604
G1 X129.606 Y82.857 E10.5409
G1 X130.303 Y83.13 E10.5658
G1 X130.966 Y83.476 E10.59067
G1 X131.589 Y83.891 E10.61557
G1 X131.779 Y84.055 E10.62392
G1 X131.949 Y84.041 E10.62959
G1 X132.696 Y84.06 E10.65444
G1 X133.438 Y84.158 E10.67934
G1 X134.165 Y84.336 E10.70423
G1 X134.868 Y84.59 E10.72909
G1 X135.541 Y84.917 E10.75398
G1 X136.245 Y85.365 E10.78173
G1 X137.399 Y86.199 E10.82909
G1 X137.981 Y86.668 E10.85395
G1 X138.151 Y86.838 E10.86195
G1 X138.161 Y86.843 E10.86232
G1 X139.023 Y87.379 E10.89608
G1 X140.185 Y88.224 E10.94386
G1 X140.766 Y88.695 E10.96874
G1 X141.293 Y89.226 E10.99362
G1 X141.76 Y89.81 E11.01849
G1 X142.162 Y90.441 E11.04338
G1 X142.495 Y91.111 E11.06826
G1 X142.754 Y91.813 E11.09315
G1 X142.81 Y92.047 E11.10115
G1 X143.364 Y92.443 E11.1238
G1 X143.923 Y92.941 E11.1487
G1 X144.425 Y93.496 E11.17359
G1 X144.865 Y94.101 E11.19847
G1 X145.237 Y94.749 E11.22333
G1 X145.648 Y95.745 E11.25916
G1 X146.091 Y97.108 E11.30683
G1 X146.284 Y97.831 E11.33172
G1 X146.318 Y98.049 E11.33906
G1 X146.329 Y98.069 E11.33982
G1 X146.698 Y98.977 E11.37242
G1 X147.143 Y100.339 E11.42007
G1 X147.337 Y101.061 E11.44494
G1 X147.453 Y101.801 E11.46985
G1 X147.489 Y102.548 E11.49473
G1 X147.445 Y103.295 E11.51961
G1 X147.322 Y104.032 E11.54447
G1 X147.121 Y104.753 E11.56936
G1 X147.024 Y104.981 E11.5776
G1 X147.253 Y105.687 E11.60229
G1 X147.407 Y106.419 E11.62717
G1 X147.481 Y107.163 E11.65204
G1 X147.476 Y107.911 E11.67691
G1 X147.391 Y108.654 E11.70179
G1 X147.147 Y109.649 E11.73586
G1 X146.71 Y110.996 E11.78296
G1 X146.442 Y111.694 E11.80783
G1 X146.324 Y111.924 E11.81643
G1 X146.092 Y112.881 E11.84918
G1 X145.648 Y114.254 E11.89717
G1 X145.381 Y114.952 E11.92203
G1 X145.04 Y115.618 E11.94692
G1 X144.63 Y116.244 E11.97181
G1 X144.155 Y116.822 E11.99669
G1 X143.622 Y117.347 E12.02157
G1 X143.035 Y117.811 E12.04646
G1 X142.824 Y117.945 E12.05477
G1 X142.609 Y118.612 E12.07808
G1 X142.305 Y119.296 E12.10298
G1 X141.929 Y119.943 E12.12787
G1 X141.487 Y120.546 E12.15273
G1 X140.983 Y121.099 E12.17762
G1 X140.183 Y121.777 E12.2125
G1 X139.025 Y122.618 E12.2601
G1 X138.398 Y123.025 E12.28496
G1 X138.169 Y123.14 E12.29348
